X:391
T: IM HUT DER FREUNDSCHAFT
N: F0700
O: Europa, Mitteleuropa, Deutschland
R: Geselligkeits -, Bundes - Lied, Freundschaft
M: 4/4
L: 1/16
K: A
c4 | A4E4e3dc3B | A6A2A6
A2 | B3dF3BE4D4 | C12
A4 | A4E4e3dc3B | A6A2A6
A2 | f3ed3cB4A4 | e12
E4 | D4D4C4C4 | F6F2E6
E2 | A4c4e4E4 | F4d8B2G2 | A12

